X: 305583
M: 6/8
L: 1/8
K: F
c |\
fag cfc | AcA F2C | FAc cBA | d2c A2c |\
faf cfc | AcA F2C | GAB cBA | def c2 :|
|: A |\


